app/dist/common/images/msci.svg

<svg height="18" width="18" xmlns="http://www.w3.org/2000/svg"><path d="m0 0h18v18h-18z" fill="#1a25ab"/><g fill="#fff"><path d="m9.001 13.7a4.7 4.7 0 1 0 0-9.4 4.7 4.7 0 0 0 0 9.4zm0 .3a5 5 0 1 0 0-10 5 5 0 0 0 0 10z" fill-rule="evenodd"/><path d="m8.996 4.436-4.57 4.57 4.57 4.572 4.571-4.571-4.57-4.571zm-4.995 4.57 4.995 4.996 4.995-4.995-4.994-4.997-4.996 4.997z" fill-rule="evenodd"/><path d="m12.329 12.56-6.848-6.847.212-.212 6.847 6.847-.213.212z"/><path d="m8.83 13.733v-9.54h.3v9.54z"/><path d="m13.75 9.113h-9.54v-.3h9.54z"/><path d="m5.694 12.56 6.846-6.847-.212-.212-6.846 6.847z"/><path d="m13.274 11.498h-8.588v-.3h8.588zm.153-4.683h-8.741v-.3h8.741z"/><path d="m9.62 9.006a.624.624 0 1 1 -1.248 0 .624.624 0 0 1 1.249 0zm-2.58 2.35a.46.46 0 1 1 -.919 0 .46.46 0 0 1 .919 0zm-2.008-.008a.406.406 0 1 1 -.812 0 .406.406 0 0 1 .812 0zm.937-5.776a.407.407 0 1 1 -.814 0 .407.407 0 0 1 .814 0zm3.481 8.214a.47.47 0 1 1 -.94 0 .47.47 0 0 1 .94 0zm4.854-4.786a.404.404 0 1 1 -.807 0 .404.404 0 0 1 .807 0zm-.808-2.335a.312.312 0 1 1 -.624 0 .312.312 0 0 1 .624 0zm-6.43 0a.486.486 0 1 1 -.971 0 .486.486 0 0 1 .971 0zm2.323 4.683a.392.392 0 1 1 -.785 0 .392.392 0 0 1 .785 0zm-2.431-6.556a.378.378 0 1 1 -.756 0 .378.378 0 0 1 .756 0zm-1.802 1.873a.452.452 0 1 1 -.904 0 .452.452 0 0 1 .904 0zm6.798 6.547a.46.46 0 1 1 -.919 0 .46.46 0 0 1 .919 0zm.018-8.42a.468.468 0 1 1 -.937 0 .468.468 0 0 1 .937 0zm-.166 4.215a.312.312 0 1 1 -.624 0 .312.312 0 0 1 .624 0z"/></g></svg>

<!-- by TradingView --><svg width="18" height="18" xmlns="http://www.w3.org/2000/svg"><path fill="#1A25AB" d="M0 0h18v18H0z"/><path fill-rule="evenodd" d="M9.001 13.7a4.7 4.7 0 100-9.4 4.7 4.7 0 000 9.4zm0 .3a5 5 0 100-10 5 5 0 000 10z" fill="#fff"/><path fill-rule="evenodd" d="M8.996 4.436l-4.57 4.57 4.57 4.572 4.571-4.571-4.57-4.571zm-4.995 4.57l4.995 4.996 4.995-4.995L8.997 4.01 4.001 9.007z" fill="#fff"/><path d="M12.329 12.56L5.481 5.713l.212-.212 6.847 6.847-.213.212z" fill="#fff"/><path d="M8.83 13.733v-9.54h.3v9.54h-.3z" fill="#fff"/><path d="M13.75 9.113H4.21v-.3h9.54v.3z" fill="#fff"/><path d="M5.694 12.56l6.846-6.847-.212-.212-6.846 6.847.212.212z" fill="#fff"/><path d="M13.274 11.498H4.686v-.3h8.588v.3zM13.427 6.815H4.686v-.3h8.741v.3z" fill="#fff"/><path d="M9.62 9.006a.624.624 0 11-1.248 0 .624.624 0 011.249 0zM7.04 11.356a.46.46 0 11-.919 0 .46.46 0 01.919 0zM5.032 11.348a.406.406 0 11-.812 0 .406.406 0 01.812 0zM5.969 5.572a.407.407 0 11-.814 0 .407.407 0 01.814 0zM9.45 13.786a.47.47 0 11-.94 0 .47.47 0 01.94 0zM14.304 9a.404.404 0 11-.807 0 .404.404 0 01.807 0zM13.496 6.665a.312.312 0 11-.624 0 .312.312 0 01.624 0zM7.066 6.665a.486.486 0 11-.971 0 .486.486 0 01.971 0zM9.389 11.348a.392.392 0 11-.785 0 .392.392 0 01.785 0zM6.958 4.792a.378.378 0 11-.756 0 .378.378 0 01.756 0zM5.156 6.665a.452.452 0 11-.904 0 .452.452 0 01.904 0zM11.954 13.212a.46.46 0 11-.919 0 .46.46 0 01.919 0zM11.972 4.792a.468.468 0 11-.937 0 .468.468 0 01.937 0zM11.806 9.007a.312.312 0 11-.624 0 .312.312 0 01.624 0z" fill="#fff"/></svg>
